X:0794
M:C
L:1/8
Q:1/4=120
K:D
f/g/|a>d`a>f ad`b>a| ada>f     feef/g/|a<da>f a<db>d|A>d {f}ed/e/ {e}fddf/g/|
     a>dTa>f adTb>a| ada>f {de}feef/g/|D2 Dd  dc`BA |B/c/d  e/f/g    fdd   |]

